X:1
T:Eleno Mome
O:Bulgaria
Q:1/4=135
M:7/8
L:1/8
P:ABCDEFG
K:C
%%MIDI channel 1
%%MIDI program 1 56
%%MIDI beat 75 65 50 1
%%MIDI chordprog 21
%%MIDI chordvol 50
%%MIDI bassprog 58
%%MIDI gchord fcfcfc2
P:A
|: "G"G2 AB "C"c/B/AG | "G"B2 Bd c/B/AG | G2 AB "C"c/B/AG | "G"B2 Bd c/B/AG |
   "G"G2 BA GF/E/D | "C"E2-E2 "F"cBA | "G"G2 BA GF/E/D | "C"E2-E2 McMcz |
"F"cc BA "G"GF/E/D | "C"E2-E2 "F"cBA | "G"G2 BA GF/E/D | "C"E2-E2 McMcz :|
P:B
|: "C"E2 FE ^D/E/FE | G2 AG ^F/G/AG | E2 FE ^D/E/FE | "G"G2 ^F/G/A/B/ "C"ccz :|
P:C
|: "C"G/^F/G/A/ G/F/G/A/ GE2 | "G"GG FF "C"E/F/Gz | G/^F/G/A/ G/F/G/A/ GE2 | "G"GG FF "C"EEz :|
P:D
K:G
 "G"B2 cB/c/ "D"BA2 | "G"G2 G>D G/A/B2 | B2 cB/c/ "D"BA2 | "G"G2 G>D GGz |
 "G"[B2d2] [ce][B/d/][c/e/] "D"[Bd][A2c2] | "G"[G2B2] [G3/2B3/2][D/G/] [G/B][A/c][B2d2] |\
    [B2d2] [ce][B/d/][c/e/] "D"[Bd][A2c2] | "G"[G2B2] [G3/2B3/2][D/G/] [GB][GB]z ||
P:E
K:C
  "G"GA _BA GF/E/D | "C"E2-E2 "F"cBA | "G"G2 BA GF/E/D | "C"E2-E2 McMcz |
"F"cc BA "G"GF/E/D | "C"E2-E2 "F"cBA | "G"G2 BA GF/E/D | "C"E2-E2 McMcz ||
W:
W:
W:Arrangement Copyright (C) 2007 Voluntocracy.
W:
W:Permission is granted to copy and distribute modified or unmodified versions of this music
W:provided the copyright notice and this permission notice are preserved on all copies and the
W:entire such work is distributed under the terms of a permission notice identical to this one.
